icon-themes/colibre_svg/vcl/res/draw_bezier.svg

<svg viewBox="0 0 256 256" xmlns="http://www.w3.org/2000/svg"><path d="m84 16v8 48h-56v24h56v56h24v-56h56v-24h-56v-56zm80 120v8 11.3125l22.21875 22.2875-10.21875 14.4h-20v24h36l13.6-19 19 19h19.4v-19.2l-22.21875-22.4 10.32813-14.4h19.89062v-24h-24-12l-13.6 19-19-19z" fill="#fff"/><path d="m92 24v56h-56v8h56v56h8v-56h56v-8h-56v-56zm80 120v8l24.8 24.8-16.8 23.2h-16v8h24l16.67187-23.32813 23.32813 23.32813h8v-8l-24.8-24.8 16.8-23.2h16v-8h-16-8l-16.8 23.2-23.2-23.2z"/></svg>

<svg xmlns="http://www.w3.org/2000/svg" viewBox="0 0 256 256">
  <path
     style="fill:#ffffff"
     d="m 84,16 v 8 48 H 28 v 24 h 56 v 56 h 24 V 96 h 56 V 72 H 108 V 16 Z m 80,120 v 8 11.3125 L 186.21875,177.6 176,192 h -20 v 24 h 36 l 13.6,-19 19,19 H 244 V 196.8 L 221.78125,174.4 232.10938,160 H 252 v -24 h -24 -12 l -13.6,19 -19,-19 z"
     />
  <path
     style="fill:#000000"
     d="M 92,24 V 80 H 36 v 8 h 56 v 56 h 8 V 88 h 56 V 80 H 100 V 24 Z m 80,120 v 8 L 196.8,176.8 180,200 h -16 v 8 h 24 L 204.67187,184.67187 228,208 h 8 v -8 L 211.2,175.2 228,152 h 16 v -8 h -16 -8 L 203.2,167.2 180,144 Z"
     />
</svg>
